X:20
T:Sean Ryan's HP #2 (C Whistle 1 note hi)
M:C|
L:1/8
S:L. Nugent's Windy Gap Trk 3
R:hornpipe
Z:sika
K:C
|G^FG| ecgG FDBD| C2EG cdfg| agfe dcBc|1 (3cdc (3cBA G |2 dccB c2:|
GF| EDEG edcB| AEAc fedc| BGBd gfed|1 cBcd c2|2 cd (3dcB c:|
